!!!!SEGMENT: pl-cz--iii-453_maader-ludwik--rorate-caeli-super-bientium.krn
!!!cenid: 17xx:983
!!!COM: Maader, Ludwik
!!!COM-rismid: pe30020328
!!!CDT: <1794->1798
!!!CNT:
!!!OPR: Rorate caeli
!!!OTL: Super bientium
!!!OMV: 004
!!!PDT: 1784
!!!AGN: Sacred
!!!SMS-siglum: PL-CZ
!!!SMS-shelfmark: III-453
!!!SMS-shelfwork: 001-004 M
!!!SMS-variant:
!!!SMS-altvar:
!!!NIFC-rismid: 300000768
!!!URL-scan: http://repozytorium.nifc.pl/skany/pl-cz-nut--iii-453
!!!ONB-nifc: UWAGA: części Rorate caeli: Rorate, Mittit ad virginem, Zdrowaś bądź Maria, Super bientium, Łaskiś pełna pańskiej, Qui nobis tribuat, Amen
!!!key: G
!!!OMD: adagio
**kern	**fba	**kern	**kern	**kern	**text	**kern	**text	**kern	**text	**kern	**text	**kern	**kern	**kern	**kern	**kern
*part12	*	*part11	*part10	*part9	*part9	*part8	*part8	*part7	*part7	*part6	*part6	*part5	*part4	*part3	*part2	*part1
*group6	*	*group5	*group5	*group4	*group4	*group4	*group4	*group4	*group4	*group4	*group4	*group3	*group2	*group2	*group1	*group1
*staff12	*	*staff11	*staff10	*staff9	*staff9	*staff8	*staff8	*staff7	*staff7	*staff6	*staff6	*staff5	*staff4	*staff3	*staff2	*staff1
*I"Organo.	*	*I"Violino Secondo	*I"Violino Primo.	*I"Baſso.	*	*I"Tenore	*	*I"Alto.	*	*I"Canto.	*	*I"Tympano in D. A.	*I"Clarino IIdo ex in D#.	*I"Clarino Imo. ex D#	*I"Oboe Secondo	*I"Oboe Imo.
*I'org	*	*I'vl 2	*I'vl 1	*I'B	*	*I'T	*	*I'A	*	*I'S	*	*I'timp	*I'clno 2 in D	*I'clno 1 in D	*I'ob 2	*I'ob 1
*Iorgan	*	*Ivioln	*Ivioln	*Ibass	*	*Itenor	*	*Ialto	*	*Isoprn	*	*Itimpa	*Itromp	*Itromp	*Ioboe	*Ioboe
*ICklav	*	*ICstr	*ICstr	*ICvox	*	*ICvox	*	*ICvox	*	*ICvox	*	*ICidio	*ICbras 	*ICbras 	*ICww	*ICww
*clefF4	*	*clefG2	*clefG2	*clefF4	*	*clefC4	*	*clefC3	*	*clefC1	*	*clefF4	*clefG2	*clefG2	*clefG2	*clefG2
*	*	*	*	*	*	*	*	*	*	*	*	*	*ITrd-1c-2	*ITrd-1c-2	*	*
*k[f#]	*	*k[f#]	*k[f#]	*k[f#]	*	*k[f#]	*	*k[f#]	*	*k[f#]	*	*k[f#]	*k[f#]	*k[f#]	*k[f#]	*k[f#]
*e:	*	*e:	*e:	*e:	*	*e:	*	*e:	*	*e:	*	*e:	*e:	*e:	*e:	*e:
*M2/4	*	*M2/4	*M2/4	*M2/4	*	*M2/4	*	*M2/4	*	*M2/4	*	*M2/4	*M2/4	*M2/4	*M2/4	*M2/4
=1	=1	=1	=1	=1	=1	=1	=1	=1	=1	=1	=1	=1	=1	=1	=1	=1
!!LO:TX:a:t=P:problem:all\ or all/ middle (z wyjątkiem timp)
!LO:TX:a:t=tutti	!	!	!	!	!	!	!	!	!	!	!	!	!	!	!LO:TX:a:t=Tutti	!LO:TX:a:t=tutti
4E\	.	8g/L	8b\L	4E\	Su-	4B\	Su-	4g\	Su-	4ee\	Su-	2ryy	2ryy	2ryy	4g/	4b\
.	.	16.g/L	16.b\L	.	.	.	.	.	.	.	.	.	.	.	.	.
.	.	32g/JJk	32b\JJk	.	.	.	.	.	.	.	.	.	.	.	.	.
8G\L	.	8b/L	8ee\L	8G\	-per-	8B\	-per-	8g\	-per-	8ee\	-per-	.	.	.	8b/L	8ee\L
8E\J	.	16.g/L	16.ee\L	8E\	-bi-	8B\	-bi-	8g\	-bi-	8ee\	-bi-	.	.	.	8g/J	8ee\J
.	.	32g/JJk	32ee\JJk	.	.	.	.	.	.	.	.	.	.	.	.	.
=2	=2	=2	=2	=2	=2	=2	=2	=2	=2	=2	=2	=2	=2	=2	=2	=2
8F#\L	x 7	8a/L	8ee\L	8F#\	-en-	8A\	-en-	8f#\	-en-	8ee\	-en-	2ryy	2ryy	2ryy	8a/L	8ee\L
8F#\J	x 6\	16.a/L	8dd#X\J	8F#\	-ti-	8A\	-ti-	8f#\	-ti-	8dd#X\	-ti-	.	.	.	8a/J	8dd#X\J
.	.	32a/JJk	.	.	.	.	.	.	.	.	.	.	.	.	.	.
4F#\	.	4a/	4dd#\	4F#\	-um	4A\	-um	4f#\	-um	4dd#\	-um	.	.	.	4a/	4dd#\
=3	=3	=3	=3	=3	=3	=3	=3	=3	=3	=3	=3	=3	=3	=3	=3	=3
4BB/	.	8a/L	8ff#\L	4BB/	ter-	4d#X\	ter-	4a\	ter-	4ff#\	ter-	2ryy	2ryy	2ryy	4a/	4ff#\
.	.	16.a/L	16.ff#\L	.	.	.	.	.	.	.	.	.	.	.	.	.
.	.	32a/JJk	32ff#\JJk	.	.	.	.	.	.	.	.	.	.	.	.	.
!	!	!LO:N:vis=8.	!	!	!	!	!	!	!	!	!	!	!	!	!	!
8D#X/L	.	8f#/L	8a/L	8D#X/	-ret	8B\	-ret	8f#\	-ret	8a\	-ret	.	.	.	8f#/L	8a/L
8BB/J	.	16.f#/L	16.a/L	8BB/	fa-	8d#\	fa-	8f#\	fa-	8a\	fa-	.	.	.	8f#/J	8a/J
.	.	32f#/JJk	32a/JJk	.	.	.	.	.	.	.	.	.	.	.	.	.
=4	=4	=4	=4	=4	=4	=4	=4	=4	=4	=4	=4	=4	=4	=4	=4	=4
8E\L	4 2	8f#/L	8a/L	8E\	-ſti-	8e\	-ſti-	8f#\	-ſti-	8a\	-ſti-	2ryy	2ryy	2ryy	8f#/L	8a/L
8E\J	3 1	16.e/L	8g/J	8E\	-gi-	8e\	-gi-	8e\	-gi-	8g\	-gi-	.	.	.	8e/J	8g/
.	.	32e/JJk	.	.	.	.	.	.	.	.	.	.	.	.	.	.
8E\L	.	8e/L	8g/L	8E\	-a	8e\	-a	8e\	-a	8g\	-a	.	.	.	4e/	8g/
8G#X\J	.	8e/J	16b/L	8G#X\	Col-	8B\	Col-	8e\	Col-	8b\	Col-	.	.	.	.	8b/J
.	.	.	16b/JJ	.	.	.	.	.	.	.	.	.	.	.	.	.
=5	=5	=5	=5	=5	=5	=5	=5	=5	=5	=5	=5	=5	=5	=5	=5	=5
8A\L	x n	8e/L	8cc\L	4A\	-la	4A\	-la	4e\	-la	4cc\	-la	2ryy	2ryy	2ryy	4e/	4cc\
8A\	.	8e/	8cc\J	.	.	.	.	.	.	.	.	.	.	.	.	.
8Fn\	x 6\	8a/	8r	8r	.	8r	.	8r	.	8r	.	.	.	.	8r	8r
8F\J	.	8a/J	16dd#X\LL	8Fn\	Sub-	8A\	Su-	8a\	Su-	8dd#X\	Su-	.	.	.	8a/	8dd#X\
.	.	.	16dd#\JJ	.	.	.	.	.	.	.	.	.	.	.	.	.
!	!	!	!	!LO:LB:g=original	!	!	!	!	!	!	!	!	!	!	!	!
=6	=6	=6	=6	=6	=6	=6	=6	=6	=6	=6	=6	=6	=6	=6	=6	=6
8E\L	x #	8g#X/L	8ee\L	8E\	-li-	8B\	-bli-	8g#X\	-bli-	8ee\	-bli-	2ryy	2ryy	2ryy	4g#X/	4ee\
8E\	.	8g#/J	8ee\J	8E\	-mi-	8B\	-mi-	8g#\	-mi-	8ee\	-mi-	.	.	.	.	.
8G#X\	.	8e/L	8r	8G#X\	-um	8G#X/	-um	8e\	-um	8b\	-um	.	.	.	[4e/	8r
!	!	!	!	!	!	!	!	!	!	!LO:TX:t=P:problem:tekst: calela poprawione na calcet	!	!	!	!	!	!
8G#\J	.	8e/J	16b\LL	8G#\	cal-	8E/	Cal-	8e\	Cal-	8b\	Cal-	.	.	.	.	8b\
.	.	.	16b\JJ	.	.	.	.	.	.	.	.	.	.	.	.	.
!	!	!	!	!	!	!LO:LB:g=original	!	!LO:LB:g=original	!	!LO:LB:g=original	!	!	!	!	!	!LO:LB:g=original
=7	=7	=7	=7	=7	=7	=7	=7	=7	=7	=7	=7	=7	=7	=7	=7	=7
!LO:TX:t=P:problem:mixed beam	!	!	!	!	!	!	!	!	!	!	!	!	!	!	!	!
8A\L	x n	8e/L	8cc\L	8A\	-cet	8F#/	-cet	8e\	-cet	8cc\	-cet	2ryy	2ryy	2ryy	8e/L]	8cc\L
8A\	.	8f#/	8a\	8A\	vi	8c\	vi	8f#\	vi	8a\	vi	.	.	.	8f#/	8a\
8B\	n6 4	8e/	8g\	8B\	pro-	8B\	pro-	8e\	pro-	8g/L	pro-	.	.	.	8e/	8g\
8BB/J	5 #	8d#X/J	8f#\J	8BB/	-pri-	8B\	-pri-	8d#X\	-pri-	8f#/J	.	.	.	.	8d#X/J	8f#\J
=8	=8	=8	=8	=8	=8	=8	=8	=8	=8	=8	=8	=8	=8	=8	=8	=8
!	!	!LO:TX:t=P:problem:mixed beam	!	!	!	!	!	!	!	!	!	!	!	!	!	!
8E\L	.	8e/L	4e/	4E\	-a	4B\	-a	4e\	-a	4e/	-pria	2ryy	2ryy	2ryy	4e/	4e/
8E\	.	8b\	.	.	.	.	.	.	.	.	.	.	.	.	.	.
8E\	.	8g#X\	8r	8r	.	8r	.	8r	.	8r	.	.	.	.	8r	8r
8G#X\J	.	8e\J	16b\LL	8G#X\	po-	8B\	po-	8e\	po-	8b\	po-	.	.	.	8e/	8b\
.	.	.	16b\JJ	.	.	.	.	.	.	.	.	.	.	.	.	.
!	!	!LO:LB:g=original	!LO:LB:g=original	!	!	!	!	!	!	!	!	!	!	!	!	!
=9	=9	=9	=9	=9	=9	=9	=9	=9	=9	=9	=9	=9	=9	=9	=9	=9
8A\L	x n	8e/L	8cc\L	4A\	-tens	4A\	-tens	4e\	tens	4cc\	-tens	2ryy	2ryy	2ryy	4e/	4cc\
8A\	.	8e/	8cc\J	.	.	.	.	.	.	.	.	.	.	.	.	.
8Fn\	x 6\	8a/	8r	8r	.	8r	.	8r	.	8r	.	.	.	.	8r	8r
8F\J	.	8a/J	16dd#X\LL	8Fn\	in	8A\	in	8a\	in	8dd#X\	in	.	.	.	8a/	8dd#X\
.	.	.	16dd#\JJ	.	.	.	.	.	.	.	.	.	.	.	.	.
!LO:LB:g=original	!	!	!	!	!	!	!	!	!	!	!	!	!	!	!	!
=10	=10	=10	=10	=10	=10	=10	=10	=10	=10	=10	=10	=10	=10	=10	=10	=10
8E\L	x #	8g#X/L	8ee\L	8E\	Prae-	8B\	Proe-	8g#X\	Prae-	8ee\	Prae-	2ryy	2ryy	2ryy	4g#X/	4ee\
8E\	.	8g#/	8ee\J	8E\	-li-	8B\	-li-	8g#\	-li-	8ee\	-li-	.	.	.	.	.
8G#X\	.	8e/	8r	8G#X\	-o	8G#X/	-o	8e\	-o	8b\	-o	.	.	.	4e/	8r
8G#\J	.	8e/J	16b\LL	8G#\	in	8E/	in	8e\	in	8b\	in	.	.	.	.	8b\
.	.	.	16b\JJ	.	.	.	.	.	.	.	.	.	.	.	.	.
=11	=11	=11	=11	=11	=11	=11	=11	=11	=11	=11	=11	=11	=11	=11	=11	=11
!	!	!	!	!	!	!LO:TX:t=P:problem:mixed beam	!	!	!	!	!	!	!	!	!	!
4A\	x n	8e/L	8cc\L	8A\	Prae-	8F#/L	Proe-	8e\L	Proe-	8cc\L	Proe-	2ryy	2ryy	2ryy	8e/L	8cc\L
.	.	8f#/	8a\	8A\	.	8c\J	.	8f#\J	.	8a\J	.	.	.	.	8f#/	8a\
!LO:TX:t=P:problem:mixed beam	!	!	!	!	!	!	!	!	!	!	!	!	!	!	!	!
8B\L	n6 4	8e/	8g\	8B\	-li-	8B\	.	8e\L	-li-	8g/L	-li-	.	.	.	8e/	8g\
!	!	!	!	!LO:TX:t=P:problem:\left	!	!	!	!	!	!	!	!	!	!	!	!
8BB/J	5 #	8d#X/J	8f#\J	8BB/	.	8B\	-li-	8d#X\J	.	8f#/J	.	.	.	.	8d#X/J	8f#\J
!	!	!	!	!	!	!	!	!	!	!	!	!	!	!	!LO:LB:g=original	!
=12	=12	=12	=12	=12	=12	=12	=12	=12	=12	=12	=12	=12	=12	=12	=12	=12
!LO:TX:t=P:problem:takt nieczytelny, defekt rkp	!	!	!	!	!	!	!	!	!	!	!	!	!	!	!	!
4E\	.	4e/	4e/	4E\	-o	4B\	-o.	4e\	-o.	4e/	-o.	2ryy	2ryy	2ryy	4e/	4e/
4EE/	.	4r	4r	4r	.	4r	.	4r	.	4r	.	.	.	.	4r	4r
!LO:TX:b:t=Zdrowas DaCapo.	!	!LO:TX:b:t=Zdrovas Tacet.	!LO:TX:b:t=Zdrowaś&colon; Tacet||&colon;	!	!	!	!	!	!	!	!	!	!	!	!	!
==	==	==	==	==	==	==	==	==	==	==	==	==	==	==	=	==
*-	*-	*-	*-	*-	*-	*-	*-	*-	*-	*-	*-	*-	*-	*-	*-	*-
!!!system-decoration: [g1][g2][g3][g4][g5]g6
!!!ENC: Katarzyna Serwa
!!!END: 2022-01-26
!!!ENC: Krzysztof Stępień
!!!END: 2020-09-10
